X:1
T:Title
L:1/8
M:6/8
K:Ab
V:1 treble nm="Grand Piano"
V:1
 z3[Q:1/4=140] A2 G | F6- | F2 C E2 F | D3 D3- | D3 G2 F | E6- | E2 B, D2 D | C6- | C3 F2 E | D6- | %10
 D2 F =E2 F | G3 G3- | G3 G2 F | A6- | A2 A G2 A | G6- | G3 A2 G | F6- | F2 C E2 F | D3 D3- | %20
 D3 G2 F | E6- | E2 B, D2 D | C6- | C3 F2 E | D6- | D2 F =E2 F | G3 G3- | G3 G2 F | A6- | %30
 A2 B A2 B | c6 | z3 c2 c | c6- | c2 B d2 c | B3 G3- | G3 B2 B | B6- | B2 d c2 B | A6- | A3 A2 A | %41
 A6- | A2 G B2 A | G3 =E3- | E3 d2 c | B2 G A2 B | c6- | c3 c2 c | c6- | c2 B d2 c | B3 G3- | %51
 G3 B2 B | B6- | B2 d c2 B | A6- | A3 A2 A | A6- | A2 G B2 A | G3 =E3- | E3 d2 c | B2 G A2 G | %61
 F6- | F3 z3 |] %63

